svg/aws-elastic-ip.svg

<?xml version="1.0" encoding="UTF-8"?>
<svg xmlns="http://www.w3.org/2000/svg" xmlns:xlink="http://www.w3.org/1999/xlink" width="76.800003" height="32" viewBox="0 0 76.800003 32">
<path fill-rule="nonzero" fill="rgb(92.941176%, 44.313725%, 0%)" fill-opacity="1" d="M 73.121094 17.023438 L 73.121094 16.574219 L 73.34375 16.800781 Z M 16.304688 28.832031 C 9.679688 28.832031 4.273438 23.441406 4.273438 16.800781 C 4.273438 10.160156 9.679688 4.769531 16.304688 4.769531 C 22.945312 4.769531 28.351562 10.160156 28.351562 16.800781 C 28.351562 23.441406 22.945312 28.832031 16.304688 28.832031 M 76.976562 15.617188 L 65.792969 3.566406 L 63.246094 5.9375 L 71.726562 15.054688 L 31.710938 15.054688 C 30.847656 7.328125 24.273438 1.296875 16.304688 1.296875 C 7.761719 1.296875 0.800781 8.238281 0.800781 16.800781 C 0.800781 25.359375 7.761719 32.304688 16.304688 32.304688 C 24.273438 32.304688 30.847656 26.273438 31.710938 18.542969 L 71.726562 18.542969 L 63.246094 27.664062 L 65.792969 30.03125 L 76.976562 17.984375 C 77.601562 17.316406 77.601562 16.28125 76.976562 15.617188 "/>
</svg>

<svg role="img" viewBox="0 0 76.8 32" height="32" width="76.8" xmlns="http://www.w3.org/2000/svg"><path d="M73.121 17.023v-.449l.223.227ZM16.305 28.832c-6.625 0-12.032-5.39-12.032-12.031 0-6.64 5.407-12.031 12.032-12.031 6.64 0 12.047 5.39 12.047 12.03 0 6.641-5.407 12.032-12.047 12.032m60.672-13.215L65.793 3.567l-2.547 2.37 8.48 9.118H31.712c-.863-7.727-7.438-13.758-15.406-13.758C7.762 1.297.8 8.238.8 16.8c0 8.558 6.96 15.504 15.504 15.504 7.968 0 14.543-6.032 15.406-13.762h40.016l-8.48 9.121 2.546 2.367 11.184-12.047a1.729 1.729 0 0 0 0-2.367" fill="rgb(92.941176%, 44.313725%, 0%)"/></svg>
